X: 1
T: Ako umram il' zaginam  [Em]
%T: Ако умрам ил' загинам
C: Jon\vce Khristovski
%C: Јонче Христовски
O: Macedonia
R: lesnoto
M: 7/8
L: 1/8
K: Em
"I"\
|: "Em"fgg "Bm"fefd | "Em"dee "Bm"eBdf | "Em"dee "Bm"eBdf | "Em"eeB =cd2 :|
|: "Am"[gB][ac][ac] [ac][gB][ac][bd] | "Em"[fA][gB][gB] [gB][fA][gB][ac] |\
"B7"[b2^d2][ac] [gB][ac][gB][fA] |1 "Em"[e3G3] [f2A2][g2B2] :|[2 "Em"[e3G3]- [e2G2] z2 |]
"V"[|\
"Em"GFE B2B2 | GFE B2B2 | "Am"ee2 d2c2 | "Em"B2A BAGF |\
"Em"GFE B2B2 | GFE B2B2 | "B7"F2G B2A2 | "Em"G2F E4 ||
"I"|| "B7"F2G B2A2 | "Em"G2F E2 "V"|:\
"Am"[e3c3] [d2B2][c2A2] | "Em"[B3G3]-[B4G4] | "Am"[ec][e2c2] [d2B2][c2A2] | "Em"[B3G3]-[B4G4] |\
"Am"[c2A2][cA] [B2G2][A2F2] | "Em"[G3E3]- [G2E2][A2F2] | "B7" [BG][A2F] [G2E2][F2^D2] | "Em"E3-E4 :|
